X: 1
T: Flirtation Jig
M: C|
L: 1/8
R: reel
B: Ryan's Mammoth Collection (as a reel)
N: Originally a reel, converted to jig by John Chambers
Z: 2005 John Chambers <jc:trillian.mit.edu>
N: 306
K: G
D \
| "G"G2A BAB | "C"cBc "D7"def | "G"g2d "C"edc | "A7"BA^G "D7"A2D \
| "G"G2A BAB | "C"cBc "D7"def | "G"gdc    BdB | "D7"AGF "G"G2 :|
|: d \
| "G"g2a bag | "D7"def "G"g2d |    g2a "(Em)"bag | "D7"fef "G"g2d \
| "G"G2A BAB | "C"cBc "D7"def | "G"gdc       BdB | "D7"AGF "G"G2 :|
